X:1
T:Indiana, 85.85 D
T:Indiana, 85.85 D
T:Old Scottish Tune
T:Public Domain Courtesy of the Cyber Hymnal™
C:Old Scottish Tune
Z:Public Domain
Z:Courtesy of the Cyber Hymnal™
%%score 1 ( 2 3 )
L:1/8
Q:1/4=105
M:4/4
K:Ab
V:1 treble 
V:2 bass 
V:3 bass 
V:1
 [CA]3 [DB] [Ec]3 [FB] | [FA]2 [DF]2 [DF]2 [CE]2 | [GB]3 [EA] [EG]2 [EA]2 | [DB]8 | %4
 [CA]3 [DB] [Ec]3 [FB] | [FA]2 [DF]2 [DF]2 [CE]2 | [EB]3 [Ec] !fermata![Ed]2 [EG]2 | [CA]8 | %8
 [Ac]3 [Ac] [EB]2 [EB]2 | [FA]3 [FA] [EG]2 [=EG]2 | [DF]3 [DF] [CE]2 [EA]2 | [GB]8 | %12
 [CA]3 [DB] [Ec]3 [FB] | [FA]2 [DF]2 [DF]2 [CE]2 | [EB]3 [Ec] !fermata![Ed]2 [DG]2 | [CA]8 |] %16
V:2
 [A,,A,]3 [A,,G,] [A,,A,]3 [D,A,] | [D,A,]2 [F,A,]2 A,2 A,2 | [E,D]3 [E,C] [E,B,]2 [E,C]2 | %3
 [E,B,]8 | [A,,A,]3 [A,,G,] [A,,A,]3 [D,A,] | [D,A,]2 [F,A,]2 A,2 [A,,A,]2 | %6
 [E,G,]3 [E,A,] !fermata![E,B,]2 [E,D]2 | [A,,A,]8 | [E,A,]3 [E,A,] [G,,G,]2 [G,,G,]2 | %9
 [F,,F,]3 [F,,F,] [C,,C,]2 [C,,C,]2 | [D,,D,]3 [D,,D,] [A,,E,]2 [E,A,]2 | [E,B,]8 | %12
 [A,,A,]3 [A,,G,] [A,,A,]3 [D,A,] | [D,A,]2 [F,A,]2 A,2 [A,,A,]2 | %14
 [E,G,]3 [E,A,] !fermata![E,B,]2 [E,B,]2 | [A,,A,]8 |] %16
V:3
 x8 | x4 A,2 A,2 | x8 | x8 | x8 | x4 A,2 x2 | x8 | x8 | x8 | x8 | x8 | x8 | x8 | x4 A,2 x2 | x8 | %15
 x8 |] %16

